apps/mobile/assets/icons/phosphor/database.svg

<svg
  height="32"
  viewBox="0 0 256 256"
  width="32"
  xmlns="http://www.w3.org/2000/svg"
>
  <path
    d="m128 24c-53.83 0-96 24.6-96 56v96c0 31.4 42.17 56 96 56s96-24.6 96-56v-96c0-31.4-42.17-56-96-56zm80 104c0 9.62-7.88 19.43-21.61 26.92-15.46 8.43-36.2 13.08-58.39 13.08s-42.93-4.65-58.39-13.08c-13.73-7.49-21.61-17.3-21.61-26.92v-16.64c17.06 15 46.23 24.64 80 24.64s62.94-9.68 80-24.64zm-138.39-74.92c15.46-8.43 36.2-13.08 58.39-13.08s42.93 4.65 58.39 13.08c13.73 7.49 21.61 17.3 21.61 26.92s-7.88 19.43-21.61 26.92c-15.46 8.43-36.2 13.08-58.39 13.08s-42.93-4.65-58.39-13.08c-13.73-7.49-21.61-17.3-21.61-26.92s7.88-19.43 21.61-26.92zm116.78 149.84c-15.46 8.43-36.2 13.08-58.39 13.08s-42.93-4.65-58.39-13.08c-13.73-7.49-21.61-17.3-21.61-26.92v-16.64c17.06 15 46.23 24.64 80 24.64s62.94-9.68 80-24.64v16.64c0 9.62-7.88 19.43-21.61 26.92z"
  />
</svg>

<svg xmlns="http://www.w3.org/2000/svg" width="32" height="32" fill="#000000" viewBox="0 0 256 256"><path d="M128,24C74.17,24,32,48.6,32,80v96c0,31.4,42.17,56,96,56s96-24.6,96-56V80C224,48.6,181.83,24,128,24Zm80,104c0,9.62-7.88,19.43-21.61,26.92C170.93,163.35,150.19,168,128,168s-42.93-4.65-58.39-13.08C55.88,147.43,48,137.62,48,128V111.36c17.06,15,46.23,24.64,80,24.64s62.94-9.68,80-24.64ZM69.61,53.08C85.07,44.65,105.81,40,128,40s42.93,4.65,58.39,13.08C200.12,60.57,208,70.38,208,80s-7.88,19.43-21.61,26.92C170.93,115.35,150.19,120,128,120s-42.93-4.65-58.39-13.08C55.88,99.43,48,89.62,48,80S55.88,60.57,69.61,53.08ZM186.39,202.92C170.93,211.35,150.19,216,128,216s-42.93-4.65-58.39-13.08C55.88,195.43,48,185.62,48,176V159.36c17.06,15,46.23,24.64,80,24.64s62.94-9.68,80-24.64V176C208,185.62,200.12,195.43,186.39,202.92Z"></path></svg>
